Themes/OneUI/assets/svg/up-down.svg

<?xml version="1.0" encoding="UTF-8" standalone="no"?>
<!-- Created with Vectornator (http://vectornator.io/) -->

<svg
   height="18.14963"
   stroke-miterlimit="10"
   style="clip-rule:evenodd;fill-rule:nonzero;stroke-linecap:round;stroke-linejoin:round"
   version="1.1"
   viewBox="0 0 21.165606 18.14963"
   width="21.165606"
   xml:space="preserve"
   id="svg2584"
   sodipodi:docname="up-down.svg"
   xmlns:inkscape="http://www.inkscape.org/namespaces/inkscape"
   xmlns:sodipodi="http://sodipodi.sourceforge.net/DTD/sodipodi-0.dtd"
   xmlns="http://www.w3.org/2000/svg"
   xmlns:svg="http://www.w3.org/2000/svg"
   xmlns:vectornator="http://vectornator.io"><sodipodi:namedview
   id="namedview2586"
   pagecolor="#ffffff"
   bordercolor="#666666"
   borderopacity="1.0"
   inkscape:showpageshadow="2"
   inkscape:pageopacity="0.0"
   inkscape:pagecheckerboard="0"
   inkscape:deskcolor="#d1d1d1" />
<defs
   id="defs2579" />
<g
   id="Untitled"
   vectornator:layerName="Untitled"
   transform="translate(-0.41721365,-1.92517)">
<path
   d="m 6.16108,1.92517 c 0.56168,0 1.0246,0.42281 1.08787,0.96751 L 7.25632,3.02041 7.25621,16.5732 10.019,13.696 c 0.4189,-0.4364 1.1122,-0.4506 1.5486,-0.0317 0.4028,0.3866 0.4459,1.0071 0.1207,1.4435 l -0.089,0.105 -4.13316,4.306 C 6.7955,20.2162 5.70586,20.2572 4.98538,19.6413 L 4.8548,19.5181 0.722315,15.2128 C 0.303441,14.7765 0.317634,14.0831 0.754016,13.6643 1.15683,13.2776 1.77857,13.26 2.2013,13.6028 l 0.10129,0.0932 2.76262,2.8782 6.3e-4,-13.55379 c 0,-0.60489 0.49036,-1.09524 1.09524,-1.09524 z m 10.85352,0.43365 0.1306,0.1232 4.1325,4.30522 c 0.4189,0.43639 0.4047,1.12971 -0.0317,1.54858 -0.4028,0.38665 -1.0246,0.4043 -1.4473,0.0615 l -0.1013,-0.0932 -2.7642,-2.87995 6e-4,13.55543 c 0,0.6049 -0.4904,1.0952 -1.0953,1.0952 -0.5616,0 -1.0246,-0.4228 -1.0878,-0.9675 L 14.7433,18.9796 14.7432,5.42517 11.981,8.30412 C 11.5943,8.70693 10.9738,8.75001 10.5374,8.4248 L 10.4324,8.33582 C 10.0296,7.94917 9.98652,7.32867 10.3117,6.89227 l 0.089,-0.10503 4.1332,-4.3059 c 0.6706,-0.69747 1.7602,-0.73849 2.4807,-0.12252 z"
   fill="#000000"
   fill-rule="nonzero"
   opacity="1"
   stroke="none"
   id="path2581" />
</g>
</svg>

<?xml version="1.0" encoding="UTF-8" standalone="no"?>
<!DOCTYPE svg PUBLIC "-//W3C//DTD SVG 1.1//EN" "http://www.w3.org/Graphics/SVG/1.1/DTD/svg11.dtd">
<!-- Created with Vectornator (http://vectornator.io/) -->
<svg height="100%" stroke-miterlimit="10" style="fill-rule:nonzero;clip-rule:evenodd;stroke-linecap:round;stroke-linejoin:round;" version="1.1" viewBox="0 0 22 22" width="100%" xml:space="preserve" xmlns="http://www.w3.org/2000/svg" xmlns:vectornator="http://vectornator.io" xmlns:xlink="http://www.w3.org/1999/xlink">
<defs/>
<g id="Untitled" vectornator:layerName="Untitled">
<path d="M6.16108 1.92517C6.72276 1.92517 7.18568 2.34798 7.24895 2.89268L7.25632 3.02041L7.25621 16.5732L10.019 13.696C10.4379 13.2596 11.1312 13.2454 11.5676 13.6643C11.9704 14.0509 12.0135 14.6714 11.6883 15.1078L11.5993 15.2128L7.46614 19.5188C6.7955 20.2162 5.70586 20.2572 4.98538 19.6413L4.8548 19.5181L0.722315 15.2128C0.303441 14.7765 0.317634 14.0831 0.754016 13.6643C1.15683 13.2776 1.77857 13.26 2.2013 13.6028L2.30259 13.696L5.06521 16.5742L5.06584 3.02041C5.06584 2.41552 5.5562 1.92517 6.16108 1.92517ZM17.0146 2.35882L17.1452 2.48202L21.2777 6.78724C21.6966 7.22363 21.6824 7.91695 21.246 8.33582C20.8432 8.72247 20.2214 8.74012 19.7987 8.39732L19.6974 8.30412L16.9332 5.42417L16.9338 18.9796C16.9338 19.5845 16.4434 20.0748 15.8385 20.0748C15.2769 20.0748 14.8139 19.652 14.7507 19.1073L14.7433 18.9796L14.7432 5.42517L11.981 8.30412C11.5943 8.70693 10.9738 8.75001 10.5374 8.4248L10.4324 8.33582C10.0296 7.94917 9.98652 7.32867 10.3117 6.89227L10.4007 6.78724L14.5339 2.48134C15.2045 1.78387 16.2941 1.74285 17.0146 2.35882Z" fill="#000000" fill-rule="nonzero" opacity="1" stroke="none"/>
</g>
</svg>
